X:12
T:Lambada
C:
M:4/4
L:1/8
K:C clef=treble-8
|: z4 z2 E2 | e3 d cB A2 | Ac BA GA ED | E6 
E2 | e3 d cB A2 | Ac BA GA ED | E8 |
dd dc F2 Ac | e2 dc F2 Ac | B2 AG GG AG | A8 |
d2 dc F2 FA | e2 dc F2 Ac | B2 AG GG AG | cB A6 :|

